/* XPM */
static const char * DigitAutoCurve_xpm[] = {
"32 32 6 1",
" \tc None",
".\tc #000200",
"+\tc #000000",
"@\tc #00FC00",
"#\tc #00F800",
"$\tc #00FF00",
"                                ",
" ..                        ..   ",
" ..                        ..   ",
" ..                        ..   ",
" ..                   @@@  ..   ",
" ..                   @@@+ ..   ",
" ..                   @@@+ ..   ",
" ..                   @@@+ ..   ",
" ..                @@@@@#@@@    ",
" ..                @@@@@@@@@    ",
" ..                @@@@@@@@@    ",
" ..             @@@@@#@@@       ",
" ..             @@@@@@@@@       ",
" ..             @@@@@@@@@       ",
" ..          @@@@@#@@@          ",
" ..          @@@@@@@@@          ",
" ..          @@@@@@@@@          ",
" ..       @@@@@#@@@             ",
" ..       @@@@@@@@@             ",
" ..       @@@@@@@@@             ",
" ..    @@@$$$@@@                ",
" ..    @@@$$$@@@                ",
" ..    @@@$$$@@@                ",
" .. @@@@@#@@@                   ",
" .. @@@@@@@@@                   ",
" .. @@@@@@@@@                   ",
" ..  @@@+                       ",
" ..  @@@+                       ",
" ..  @@@+                       ",
" ..                             ",
" ++++++++++++++++++++++++++++++ ",
"                                "};
